public/logos/G3.svg

<?xml version="1.0" encoding="UTF-8"?>
<svg xmlns="http://www.w3.org/2000/svg" xmlns:xlink="http://www.w3.org/1999/xlink" width="145.28pt" height="59pt" viewBox="0 0 145.28 59" version="1.1">
<g id="surface1">
<path style=" stroke:none;fill-rule:nonzero;fill:rgb(80.532837%,80.310059%,78.157043%);fill-opacity:1;" d="M 85.496094 0.0117188 C 83.664062 0.0117188 81.84375 0.183594 80.046875 0.519531 C 93.726562 3.082031 104.089844 14.042969 104.089844 28.460938 C 104.089844 38.730469 95.769531 48.09375 85.496094 48.09375 C 75.226562 48.09375 66.90625 39.773438 66.890625 29.511719 C 66.890625 21.335938 72.222656 14.121094 80.046875 11.726562 C 78.28125 11.195312 76.449219 10.921875 74.601562 10.921875 C 64.332031 10.921875 56.011719 20.28125 56.011719 30.550781 C 56.011719 44.972656 66.371094 55.945312 80.046875 58.492188 C 81.84375 58.832031 83.675781 59 85.511719 59 C 98.132812 59 108.910156 51.070312 113.109375 39.902344 L 113.109375 19.113281 C 108.886719 7.957031 98.121094 0.0117188 85.496094 0.0117188 "/>
<path style=" stroke:none;fill-rule:nonzero;fill:rgb(95.080566%,36.334229%,11.885071%);fill-opacity:1;" d="M 144.289062 47.261719 L 124.953125 47.261719 C 124.410156 47.261719 123.96875 46.816406 123.96875 46.273438 L 123.96875 1.847656 C 123.96875 1.300781 123.523438 0.859375 122.992188 0.859375 L 114.074219 0.859375 C 113.527344 0.859375 113.085938 1.300781 113.085938 1.847656 L 113.085938 56.179688 C 113.085938 57.269531 113.96875 58.140625 115.050781 58.140625 L 144.289062 58.140625 C 144.835938 58.140625 145.277344 57.699219 145.277344 57.152344 L 145.277344 48.234375 C 145.277344 47.703125 144.835938 47.261719 144.289062 47.261719 Z M 80.046875 0.519531 C 78.253906 0.183594 76.433594 0.0117188 74.601562 0.0117188 C 60.457031 0.0117188 48.636719 9.972656 45.777344 23.257812 C 45.671875 23.714844 45.285156 24.027344 44.816406 24.027344 L 30.460938 24.027344 C 29.914062 24.027344 29.472656 24.46875 29.472656 25 L 29.472656 33.921875 C 29.472656 34.46875 29.914062 34.90625 30.460938 34.90625 L 43.058594 34.90625 C 43.605469 34.90625 44.046875 35.351562 44.046875 35.898438 L 44.046875 40.316406 C 44.046875 40.785156 43.878906 41.238281 43.566406 41.605469 C 36.871094 49.378906 25.144531 50.261719 17.355469 43.566406 C 9.570312 36.871094 8.699219 25.144531 15.394531 17.355469 C 20.878906 10.984375 29.941406 9.089844 37.523438 12.726562 C 37.976562 12.960938 38.535156 12.792969 38.808594 12.351562 L 43.386719 4.65625 C 43.65625 4.1875 43.515625 3.589844 43.046875 3.300781 C 43.035156 3.289062 43.023438 3.289062 42.996094 3.277344 C 38.820312 1.117188 34.179688 -0.0117188 29.472656 0 C 13.195312 0.0117188 0 13.222656 0 29.5 C 0 45.777344 13.195312 58.988281 29.488281 58.988281 C 37.808594 59 45.726562 55.488281 51.316406 49.328125 C 51.679688 48.921875 52.304688 48.898438 52.707031 49.261719 C 52.734375 49.289062 52.757812 49.300781 52.773438 49.328125 C 59.664062 56.90625 69.984375 60.363281 80.046875 58.492188 C 66.371094 55.945312 56.011719 44.972656 56.011719 30.550781 C 56.011719 20.28125 64.332031 10.921875 74.601562 10.921875 C 84.871094 10.921875 93.195312 19.242188 93.195312 29.511719 C 93.195312 37.691406 87.863281 44.894531 80.046875 47.296875 C 81.816406 47.84375 83.652344 48.117188 85.496094 48.105469 C 95.769531 48.105469 104.089844 38.742188 104.089844 28.472656 C 104.074219 14.042969 93.726562 3.082031 80.046875 0.519531 "/>
</g>
</svg>

<svg xmlns="http://www.w3.org/2000/svg" width="193.707" height="59pt" viewBox="0 0 145.28 59"><path d="M85.496.012c-1.832 0-3.652.172-5.45.508 13.68 2.562 24.044 13.523 24.044 27.94 0 10.27-8.32 19.634-18.594 19.634-10.27 0-18.59-8.32-18.605-18.582 0-8.176 5.332-15.39 13.156-17.785a18.9 18.9 0 0 0-5.445-.805c-10.27 0-18.59 9.36-18.59 19.629 0 14.422 10.36 25.394 24.035 27.941 1.797.34 3.629.508 5.465.508 12.62 0 23.398-7.93 27.597-19.098V19.113C108.887 7.957 98.121.012 85.496.012" style="stroke:none;fill-rule:nonzero;fill:#cdcdc7;fill-opacity:1"/><path d="M144.29 47.262h-19.337a.99.99 0 0 1-.984-.989V1.848a.987.987 0 0 0-.977-.989h-8.918a.987.987 0 0 0-.988.989V56.18c0 1.09.883 1.96 1.965 1.96h29.238a.987.987 0 0 0 .988-.988v-8.918a.984.984 0 0 0-.988-.972M80.046.52a29.6 29.6 0 0 0-5.445-.508c-14.145 0-25.965 9.96-28.825 23.246a.975.975 0 0 1-.96.77H30.46a.984.984 0 0 0-.988.972v8.922c0 .547.441.984.988.984h12.598a.99.99 0 0 1 .988.992v4.418c0 .47-.168.922-.48 1.29-6.696 7.773-18.422 8.656-26.212 1.96-7.785-6.695-8.656-18.421-1.96-26.21a18.58 18.58 0 0 1 22.128-4.63c.454.235 1.012.067 1.286-.374l4.578-7.696a1 1 0 0 0-.34-1.355c-.012-.012-.024-.012-.05-.024A29.3 29.3 0 0 0 29.472 0C13.195.012 0 13.223 0 29.5s13.195 29.488 29.488 29.488c8.32.012 16.239-3.5 21.828-9.66a.983.983 0 0 1 1.391-.066c.027.027.05.039.066.066a29.55 29.55 0 0 0 27.274 9.164c-13.676-2.547-24.035-13.52-24.035-27.941 0-10.27 8.32-19.63 18.59-19.63s18.593 8.321 18.593 18.59c0 8.18-5.332 15.384-13.148 17.786 1.77.547 3.605.82 5.45.808 10.273 0 18.593-9.363 18.593-19.632C104.074 14.043 93.727 3.082 80.047.52" style="stroke:none;fill-rule:nonzero;fill:#f25d1e;fill-opacity:1"/></svg>
